images/icons/v2/undo-24.svg

<svg height="24" viewBox="0 0 24 24" width="24" xmlns="http://www.w3.org/2000/svg"><path d="m12.073 2.5a9.438 9.438 0 0 0 -6.717 2.782c-.39.39-.7.707-.955.963l.349-1.307v-2.381h-1.5v5.943h5.943v-1.5h-2.381l-1.422.379c.26-.265.589-.6 1.027-1.036a8 8 0 1 1 5.656 13.657h-.573v1.5h.573a9.5 9.5 0 0 0 0-19z"/></svg>

<svg xmlns="http://www.w3.org/2000/svg" width="24" height="24" viewBox="0 0 24 24"><title>undo-24</title><path d="M12.073,2.5A9.438,9.438,0,0,0,5.356,5.282c-.39.39-.7.707-.955.963L4.75,4.938V2.557H3.25V8.5H9.193V7H6.812L5.39,7.379c.26-.265.589-.6,1.027-1.036A8,8,0,1,1,12.073,20H11.5v1.5h.573a9.5,9.5,0,0,0,0-19Z"/></svg>
